apps/aragon-fundraising/app/src/assets/EditIcon.svg

<svg width="14" height="14" viewBox="0 0 14 14" fill="none" xmlns="http://www.w3.org/2000/svg">
<path d="M12.1476 8.14605C11.8352 8.14605 11.5821 8.39923 11.5821 8.71157V12.1476C11.5821 12.5454 11.2585 12.8689 10.8607 12.8689H1.85243C1.45466 12.8689 1.13107 12.5453 1.13107 12.1476V3.13933C1.13107 2.74156 1.45469 2.41797 1.85243 2.41797H5.28845C5.60077 2.41797 5.85397 2.16477 5.85397 1.85245C5.85397 1.54013 5.60077 1.28693 5.28845 1.28693H1.85243C0.831004 1.28693 0 2.11793 0 3.13936V12.1476C2.73438e-05 13.169 0.831031 14 1.85243 14H10.8607C11.8821 14 12.7131 13.169 12.7131 12.1476V8.71155C12.7131 8.39923 12.4599 8.14605 12.1476 8.14605Z" fill="#8FA4B5"/>
<path d="M13.8345 2.73943L11.2607 0.165642C11.0399 -0.0552139 10.6818 -0.0552139 10.4609 0.165642L4.02649 6.60012C3.92045 6.70618 3.86084 6.85004 3.86084 7.00002V9.57381C3.86084 9.88615 4.11404 10.1393 4.42636 10.1393H7.00015C7.15016 10.1393 7.29398 10.0797 7.40002 9.97371L13.8345 3.5392C13.9406 3.43314 14.0001 3.28928 14.0001 3.1393C14.0001 2.98932 13.9406 2.84549 13.8345 2.73943ZM6.76592 9.00826H4.99191V7.23425L10.8608 1.36532L12.6348 3.13933L6.76592 9.00826Z" fill="#8FA4B5"/>
</svg>

<svg width="14" height="14" fill="none" xmlns="http://www.w3.org/2000/svg"><path d="M12.148 8.146a.565.565 0 0 0-.566.566v3.436a.722.722 0 0 1-.721.72H1.852a.722.722 0 0 1-.72-.72V3.139c0-.397.323-.721.72-.721h3.436a.566.566 0 0 0 0-1.131H1.852A1.855 1.855 0 0 0 0 3.139v9.009C0 13.169.831 14 1.852 14h9.009a1.855 1.855 0 0 0 1.852-1.852V8.712a.566.566 0 0 0-.565-.566z" fill="#8FA4B5"/><path d="M13.835 2.74L11.26.165a.566.566 0 0 0-.8 0L4.026 6.6a.566.566 0 0 0-.165.4v2.574c0 .312.253.565.565.565H7c.15 0 .294-.06.4-.165l6.434-6.435a.565.565 0 0 0 0-.8zm-7.07 6.268H4.993V7.234l5.869-5.869 1.774 1.774-5.87 5.87z" fill="#8FA4B5"/></svg>
